!!!!SEGMENT: mpm340-fuji-ko.krn
!!!COM: Harry Rowe Shelly
!!!OTL: Fuji-Ko
!!!OTL2: A Japanese Intermezzo
!!!ONB: National
**kern	**kern	**dynam
*part1	*part1	*part1
*staff2	*staff1	*
*>[A,B,B1,B,B2,C,D,D1,D,D2,E,A,F]	*>[A,B,B1,B,B2,C,D,D1,D,D2,E,A,F]	*>[A,B,B1,B,B2,C,D,D1,D,D2,E,A,F]
*>norep[B,B2,D,D2]	*>norep[B,B2,D,D2]	*>norep[B,B2,D,D2]
*>A	*>A	*>A
*clefG2	*clefG2	*
*k[f#c#g#d#]	*k[f#c#g#d#]	*
*E:	*E:	*
*M2/2	*M2/2	*
*met(c|)	*met(c|)	*
=1	=1	=1
!	!LO:TX:a:B:t=Allegretto	!
8e'L 8gn	8ccn'L	p
8e' 8g	8cc'	.
8e' 8g	8cc'	.
8e'J 8g	8cc'J	.
2e 2g	8ccL	.
.	8r	.
.	8ee	.
.	8ccJ	.
=2	=2	=2
2.d# 2.f#	2.b	.
8r	8r	.
(8e 8gn	(24ccnLL	.
.	24ee	.
.	24ccJJ	.
=3	=3	=3
4d#) 4f#	4b)	.
8r	8r	.
(8e 8gn	(24ccnLL	.
.	24ee	.
.	24ccJJ	.
4d#) 4f#	4b)	.
8r	8r	.
(8e 8g	(24ccLL	.
.	24ee	.
.	24ccJJ	.
=4	=4	=4
4d#) 4f#	4b)	.
*clefF4	*	*
4DD#^ 4D#	4r	f
4cn^ 4d# 4f# 4a	4ccn^ 4dd# 4ff# 4aa	.
4r	4r	.
=5	=5	=5
4EE'	8B'L	p
.	8c#'	.
4G#'	8d#'	.
.	8e'J	.
4BB'	8f#'L	.
.	8g#'	.
4G#'	8f#'	.
.	8e'J	.
=6	=6	=6
4EE'	8f#L	.
.	8g#J	.
4G#'	2b^	.
4BB'	.	.
4G#'	8g#L	.
.	8bJ	.
=7	=7	=7
4EE'	8eL 8g# 8cc#	.
.	8dd#J	.
4G#'	4.cc#^	.
4BB'	.	.
.	8bL	.
4G#'	8g#	.
.	8bJ	.
=8	=8	=8
4EE'	8eL 8g# 8cc#	.
.	8dd#J	.
4G#'	2.cc#^	.
4BB'	.	.
4G#'	.	.
=9	=9	=9
4EE	8d#L 8a 8cc#	p
.	8d# 8a 8cc#	.
4A	8d# 8a 8cc#	.
.	8d#J 8a 8cc#	.
4BB	4d#' 4a 4cc#	.
4A	4a' 4cc# 4ff#	.
=10	=10	=10
4EE	4d#' 4a 4cc#	.
4A	4a' 4cc# 4ff#	.
4BB	2d#^ 2a 2cc#	.
4A	.	.
=11	=11	=11
4EE	(8eL 8g# 8cc#	.
.	8eeJ	.
4G#	2b)	.
4BB	.	.
4G#	4g#	.
=12	=12	=12
4EE	8A#X^L 8f#	>
.	8g#	.
4C#^	8f#	.
.	8c#J	.
4EE	8An^L 8f#	.
.	8g#	.
4D#^	8f#	.
.	8d#J	]
=13	=13	=13
4EE	8B'L	p
.	8c#'	.
4G#	8d#'	.
.	8e'J	.
4BB	8f#'L	.
.	8g#'	.
4G#	8f#'	.
.	8e'J	.
=14	=14	=14
4EE	8f#L	.
.	8g#J	.
4G#	2b^	.
4BB	.	.
4G#	8g#L	.
.	8bJ	.
=15	=15	=15
4EE	8eL 8g# 8cc#	.
.	8dd#J	.
4G#	4.cc#^	.
4BB	.	.
.	8bL	.
4G#	8g#	.
.	8bJ	.
=16	=16	=16
4EE	8eL 8g# 8cc#	.
.	8dd#J	.
4G#	2.cc#^	.
4BB	.	.
4G#	.	.
=17	=17	=17
4EE	8aL 8cc# 8ff#	.
.	8a 8cc# 8ff#	.
4A	8a 8cc# 8ff#	.
.	8aJ 8cc# 8ff#	.
4BB	4a 4cc# 4ff#	.
4A	4cc# 4ff# 4aa	.
=18	=18	=18
4EE	4a 4cc# 4ff#	.
4A	4cc# 4ff# 4aa	.
4BB	2d#^ 2a 2cc#	.
4A	.	.
=19	=19	=19
4EE	(8eL 8g# 8cc#	.
.	8eeJ	.
4G#	4b)	.
4BB	(8eL 8g# 8cc#	.
.	8eeJ	.
4G#	4b)	.
=20	=20	=20
4EE 4BB	4A 4d# 4f#	.
4EE 4BB	8f#L	.
.	8g#J	.
4EE 4BB	4G# 4e	.
4r	8r	.
!	!LO:TX:a:Bi:t=To Coda	!
.	(8gg#	.
=21!|:	=21!|:	=21!|:
*>B	*>B	*>B
4EE	4.bb	.
4G#	.	.
.	8gg#	.
4BB	4.ee	.
4G#	.	.
.	8gg#	.
=22	=22	=22
4EE	8ff#L	.
.	8ee	.
4A	8ff#	.
.	8gg#J	.
4BB	4ff#')	.
4A	4gg#'	.
=23	=23	=23
.	(8qgg#/	.
4EE	(2cc#)	.
4G#	.	.
4BB	4b')	.
4G#	4ee'	.
=24	=24	=24
.	(8qgg#/	.
4EE	(2cc#)	.
4G#	.	.
4BB	2b)	.
4G#	.	.
=25	=25	=25
4EE	8f#L 8b	.
.	8f# 8b	.
4A	8f# 8b	.
.	8g#J 8b	.
4BB	4a' 4b	.
4A	4f#' 4b	.
=26	=26	=26
4EE	8aL 8b	.
.	8aJ 8b	.
4A	4f#' 4b	.
4BB	2a^ 2b	.
4A	.	.
=27	=27	=27
4EE	8eL 8b	.
.	8e 8b	.
4G#	8e 8b	.
.	8f#J 8b	.
4BB	4g#' 4b	.
4G#	4e' 4b	.
=28	=28	=28
4EE	8g#L 8b	.
.	8g#J 8b	.
4G#	4e' 4b	.
4BB	4.g#^ 4.b	.
4G#	.	.
.	(8gg#	.
=29	=29	=29
4EE	4.bb	.
4G#	.	.
.	8gg#	.
4BB	4.ee	.
4G#	.	.
.	8gg#	.
=30	=30	=30
4EE	8ff#L	.
.	8ee	.
4A	8ff#	.
.	8gg#J	.
4BB	4ff#')	.
4A	4gg#'	.
=31	=31	=31
.	(8qgg#/	.
4EE	(2cc#)	.
4G#	.	.
4BB	4b')	.
4G#	4ee'	.
=32	=32	=32
.	(8qgg#/	.
4EE	(2cc#)	.
4G#	.	.
4BB	2b)	.
4G#	.	.
=33	=33	=33
4DD#	8a#XL 8dd#	.
.	8a# 8dd#	.
4c#	8a# 8dd#	.
.	8bJ 8dd#	.
4F##X	4cc#' 4dd#	.
4c#	4a#' 4dd#	.
=34	=34	=34
*	*^	*
4D#	8cc#L 8dd#	2ryy	.
.	8cc#J 8dd#	.	.
4c#	4a#X' 4dd#	.	.
4F##X	(8ccc#L	2cc# 2dd#	.
.	8aa#XJ	.	.
4c#	4aa#^) 4ccc#	.	.
*	*v	*v	*
=35	=35	=35
4DD#	8g#L 8dd#	.
.	8g#J 8dd#	.
4D#	4b^ 4dd#	.
4DD#	8f##XL 8dd#	.
.	8f##J 8dd#	.
4D#	4a#X^ 4dd#	<
=36	=36	=36
*>B1	*>B1	*>B1
4GG# 4BB 4G#	8g#L	.
.	8a	.
4r	8a#X	.
.	8bJ	.
2BB^ 2F# 2A	4.d#^ 4.cc#	[
.	(8gg#	.
=37:|!	=37:|!	=37:|!
*>B2	*>B2	*>B2
4GG# 4BB 4G#	8g#Lz	<
.	8a	.
4r	8a#X	.
.	8bJ	.
2BB^ 2F# 2A	2d#^ 2cc#	[
=38	=38	=38
*>C	*>C	*>C
4EE	8B'L	p
.	8c#'	.
4G#	8d#'	.
.	8e'J	.
4BB	8f#'L	.
.	8g#'	.
4G#	8f#'	.
.	8e'J	.
=39	=39	=39
4EE	8f#L	.
.	8g#J	.
4G#	2b^	.
4BB	.	.
4G#	8g#L	.
.	8bJ	.
=40	=40	=40
4EE	8eL 8g# 8cc#	.
.	8dd#J	.
4G#	4.cc#^	.
4BB	.	.
.	8bL	.
4G#	8g#	.
.	8bJ	.
=41	=41	=41
4EE	8eL 8g# 8cc#	.
.	8dd#J	.
4G#	2.cc#^	.
4BB	.	.
4G#	.	.
=42	=42	=42
4EE	8d#'L 8a 8cc#	.
.	8d#' 8a 8cc#	.
4A	8d#' 8a 8cc#	.
.	8d#'J 8a 8cc#	.
4BB	4d#' 4a 4cc#	.
4A	4a' 4cc# 4ff#	.
=43	=43	=43
4EE	4d#' 4a 4cc#	.
4A	4a' 4cc# 4ff#	.
4BB	2d#^ 2a 2cc#	.
4A	.	.
=44	=44	=44
4EE	(8eL 8g# 8cc#	.
.	8eeJ	.
4G#	2b	.
4BB	.	.
4G#	4g#)	.
=45	=45	=45
4EE	8A#X^L 8f#	.
.	8g#	>
4C#^	8f#	.
.	8c#J	.
4EE	8An^L 8f#	.
.	8g#	.
4D#^	8f#	.
.	8d#J	.
=46	=46	=46
4EE	8B'L	]
.	8c#'	.
4G#	8d#'	.
.	8e'J	.
4BB	8f#'L	.
.	8g#'	.
4G#	8f#'	.
.	8e'J	.
=47	=47	=47
4EE	8f#L	.
.	8g#J	.
4G#	2b^	.
4BB	.	.
4G#	8g#L	.
.	8bJ	.
=48	=48	=48
4EE	8eL 8g# 8cc#	.
.	8dd#J	.
4G#	4.cc#^	.
4BB	.	.
.	8bL	.
4G#	8g#	.
.	8bJ	.
=49	=49	=49
4EE	8eL 8g# 8cc#	.
.	8dd#J	.
4G#	2.cc#	.
4BB	.	.
4G#	.	.
=50	=50	=50
4EE	8aL 8cc# 8ff#	.
.	8a 8cc# 8ff#	.
4A	8a 8cc# 8ff#	.
.	8aJ 8cc# 8ff#	.
4BB	4a 4cc# 4ff#	.
4A	4cc# 4ff# 4aa	.
=51	=51	=51
4EE	4a 4cc# 4ff#	.
4A	4cc# 4ff# 4aa	.
4BB	2d#^ 2a 2cc#	.
4A	.	.
=52	=52	=52
4EE	8eL 8g# 8cc#	.
.	8eeJ	.
4G#	4b	.
4BB	8eL 8g# 8cc#	.
.	8eeJ	.
4G#	4b	.
=53	=53	=53
4EE 4BB	4A 4d# 4f#	.
4EE 4BB	8f#L	.
.	8g#J	.
4EE 4BB	4G# 4e	.
4r	4r	.
=54!|:	=54!|:	=54!|:
*>D	*>D	*>D
*k[]	*k[]	*
*C:	*C:	*
!	!LO:TX:a:B:t=Cantabile	!
4CC' 4GG	(4.g	f
4CC' 4GG	.	.
.	8e)	.
2GG^ 2D	(4.d	.
.	8a)	.
=55	=55	=55
4CC' 4GG	(4.g	.
4CC' 4GG	.	.
.	8e)	.
2GG^ 2D	(4.d	.
.	8a)	.
=56	=56	=56
4CC' 4GG	4.g	.
4CC' 4GG	.	.
.	8e	.
2GG^ 2D	4.d	.
.	8e	.
=57	=57	=57
4CC' 4GG	2.A	.
4CC' 4GG	.	.
2GG^ 2D	.	.
.	4B	.
=58	=58	=58
4CC 4GG	2e	.
4CC 4GG	.	.
2GG^ 2E	[2G	.
=59	=59	=59
4CC 4GG	4G]	.
4CC 4GG	12eL	.
.	12f	.
.	12eJ	.
2GG^ 2E	4d#X	.
.	4e	.
=60	=60	=60
4CC 4GG	2g	.
4CC 4GG	.	.
2GG 2E	6a	.
.	6e	.
.	6a	.
=61	=61	=61
4CC 4GG	2.b	.
4CC 4GG	.	.
2GG 2D#X	.	.
.	4a	.
=62	=62	=62
4CC 4GG	4.g	.
4CC 4GG	.	.
.	8e	.
2GG 2D	4.d	.
.	8a	.
=63	=63	=63
4CC 4GG	4.g	.
4CC 4GG	.	.
.	8e	.
2GG 2D	4.d	.
.	8a	.
=64	=64	=64
4CC 4GG	4.g	.
4CC 4GG	.	.
.	8e	.
2GG 2D	4.d	.
.	8e	.
=65	=65	=65
4CC 4GG	2.A	.
4CC 4GG	.	.
2GG 2E	.	.
.	4c	.
=66	=66	=66
4CC 4GG	4.B	.
4CC 4GG	.	.
.	8d	.
2GG 2D	4.f	.
.	8a	.
=67	=67	=67
4CC 4GG	4.f#X	.
4CC 4GG	.	.
.	8g	.
2GG 2E	4.cc	.
.	8e	.
=68	=68	=68
4CC 4GG	4.f	.
4CC 4GG	.	.
.	8g	.
2GG 2F	4.a	.
.	8B	.
=69	=69	=69
*>D1	*>D1	*>D1
4CC 4GG	4.c	.
4CC 4GG	.	.
.	8d	.
4CC 4GG	4.e	.
4r	.	.
.	8f	.
=70:|!	=70:|!	=70:|!
*>D2	*>D2	*>D2
4CC 4GG	4.c	>
4CC 4GG	.	.
.	8d	.
4CC 4GG	4.e	.
4r	.	.
.	8g	.
=71	=71	=71
*>E	*>E	*>E
*	*^	*
!	!	!	!LO:DY:a
4GG'	(4.f#X	2B	] p
4D'	.	.	.
.	8g)	.	.
4DD'	(4.e	2c	.
4D'	.	.	.
.	8d)	.	.
=72	=72	=72	=72
4GG'	(4.f#X	2B	.
4D'	.	.	.
.	8g)	.	.
4DD'	(4.e	2c	.
4D'	.	.	.
.	8d)	.	.
=73	=73	=73	=73
4GG'	4.f#X	2B	.
4D'	.	.	.
.	8g	.	.
4DD'	4.e	2c	.
4D'	.	.	.
.	8d	.	.
=74	=74	=74	=74
4GG'	2.e	2B	.
4D'	.	.	.
4DD'	.	2c	.
4D'	4d	.	.
=75	=75	=75	=75
4GG'	4.f#X	2B	.
4D'	.	.	.
.	8g	.	.
4DD'	4.e	2c	.
4D'	.	.	.
.	8d	.	.
=76	=76	=76	=76
4GG'	4.f#X	2B	.
4D'	.	.	.
.	8g	.	.
4DD'	4.e	2c	.
4D'	.	.	.
.	8d	.	.
=77	=77	=77	=77
4GG'	4.f#X	2B	.
4D'	.	.	.
.	8g	.	.
4DD'	4.a	2c	.
4D'	.	.	.
.	8d	.	.
=78	=78	=78	=78
4GG	4.g	2.B	<
4D	.	.	.
.	8a	.	.
4G	4.g	.	.
4r	.	4rc	.
.	8a	.	[
*	*v	*v	*
=79	=79	=79
4CC 4GG	4.g	f
4CC 4GG	.	.
.	8e	.
2GG 2D	4.d	.
.	8a	.
=80	=80	=80
4CC 4GG	4.g	.
4CC 4GG	.	.
.	8e	.
2GG 2D	4.d	.
.	8a	.
=81	=81	=81
4CC 4GG	4.g	.
4CC 4GG	.	.
.	8e	.
2GG 2D	4.d	.
.	8e	.
=82	=82	=82
4CC 4GG	2.A	.
4CC 4GG	.	.
2GG 2E	.	.
.	4c	.
=83	=83	=83
4CC 4GG	4.B	.
4CC 4GG	.	.
.	8d	.
2GG 2D	4.f	.
.	8a	.
=84	=84	=84
4CC 4GG	4.f#X	.
4CC 4GG	.	.
.	8g	.
2GG 2E	4.cc	.
.	8e	.
=85	=85	=85
4CC 4GG	4.f	.
4CC 4GG	.	.
.	8g	.
2GG 2F	4.a	.
.	8B	.
=86	=86	=86
4CC 4GG	2.c	.
4CC 4GG	.	.
4CC 4GG	.	.
!	!LO:TX:a:Bi:t=D.C. al Coda	!
4r	4r	.
=87||	=87||	=87||
*>F	*>F	*>F
*k[f#c#g#d#]	*k[f#c#g#d#]	*
*E:	*E:	*
4GG#' 4BB#X 4D# 4G#	4g#' 4b#X 4dd# 4gg#	pp
4GG#' 4BB# 4D# 4G#	4g#' 4b# 4dd# 4gg#	.
4C#' 4E 4G#	4g#' 4b# 4dd# 4gg#	.
4r	4r	.
=88	=88	=88
4BB' 4D# 4F# 4B	4b' 4dd# 4ff# 4bb	.
4BB' 4D# 4F# 4B	4b' 4dd# 4ff# 4bb	.
4E' 4G# 4B	4b' 4ee 4gg# 4bb	.
4r	4r	.
=89	=89	=89
4AA' 4C# 4E 4A	4cc#' 4ee 4aa 4ccc#	.
4r	4r	.
4BB' 4D# 4A 4B	4b' 4dd# 4aa 4bb	.
4r	4r	.
=90	=90	=90
4EE' 4GG# 4BB 4E	4ee' 4gg# 4bb 4eee	.
4r	4r	.
2r	2r	.
==	==	==
*-	*-	*-
!!!system-decoration: {(s1,s2)}
!!!ENC: Yukiko Yoden
!!!END: 2022/03/21